!!!COM: Anonymous
!!!CDT: [?]
!!!OTL@@LAT: Martine Sancte Pontifex
!!!TXO: Latin
!!!ODT: 
!!!GTL: Hymnbook E
!!!ARL: Opactwo św. Wojciecha, Staniątki 
!!!voices:	6
**kern	**kern	**text	**kern	**text	**kern	**text	**kern	**text	**kern	**text
*staff6	*staff5	*staff5	*staff4	*staff4	*staff3	*staff3	*staff2	*staff2	*staff1	*staff1
*I"Organo	*I"Basso	*	*I"Alto II	*	*I"Alto I	*	*I"Canto II	*	*I"Canto I	*
=1-	=1-	=1-	=1-	=1-	=1-	=1-	=1-	=1-	=1-	=1-
*clefF4	*clefF4	*	*clefGv2	*	*clefGv2	*	*clefG2	*	*clefG2	*
*k[b-]	*k[b-]	*	*k[b-]	*	*k[b-]	*	*k[b-]	*	*k[b-]	*
*met(c|)	*met(c|)	*	*met(c|)	*	*met(c|)	*	*met(c|)	*	*met(c|)	*
*M2/2	*M2/2	*	*M2/2	*	*M2/2	*	*M2/2	*	*M2/2	*
2r	2r	.	2r	.	2r	.	2r	.	2r	.
2D\	2D\	Mar-	2f#\	Mar-	2d\	Mar-	2a/	Mar-	2dd\	Mar-
=2	=2	=2	=2	=2	=2	=2	=2	=2	=2	=2
2G\	2G\	-ti-	2g\	-ti-	2B-\	-ti-	2b-\	-ti-	2dd\	-ti-
2G\	2G\	-ne	2g\	-ne	[2d\	-ne	2b-\	-ne	2dd\	-ne
=3	=3	=3	=3	=3	=3	=3	=3	=3	=3	=3
1B-	1B-	San-	2.f\	San-	4d\]	.	1b-	San-	1dd	San-
.	.	.	.	.	4c\	.	.	.	.	.
.	.	.	.	.	4d\	.	.	.	.	.
.	.	.	4g\	.	4e\	.	.	.	.	.
=4	=4	=4	=4	=4	=4	=4	=4	=4	=4	=4
2F\	2F\	-cte	4a\	.	1f	San-	2a/	-cte	2cc\	-cte
.	.	.	4b-\	.	.	.	.	.	.	.
[2D\	[2D\	Pon-	[2a\	.	.	.	[2dd\	Pon-	[2ff\	Pon-
=5	=5	=5	=5	=5	=5	=5	=5	=5	=5	=5
4D\]	4D\]	.	2a\]	.	2d\	-cte	2dd\]	.	2ff\]	.
4E\	4E\	.	.	.	.	.	.	.	.	.
4F\	4F\	.	4g\	.	4A/	Pon-	4cc\	.	4ee\	.
4G\	4G\	.	4f\	.	4B-\	.	4b-\	.	4dd\	.
=6	=6	=6	=6	=6	=6	=6	=6	=6	=6	=6
1A	1A	.	1e	-cte	4c#\	.	4a/	.	2.cc#\	.
.	.	.	.	.	4d\	.	4b-\	.	.	.
.	.	.	.	.	4e\	.	4cc#\	.	.	.
.	.	.	.	.	4f\	.	4a/	.	4dd\	.
=7	=7	=7	=7	=7	=7	=7	=7	=7	=7	=7
2G\	2G\	.	2r	.	4g\	.	2b-\	.	4ee\	.
.	.	.	.	.	4f\	.	.	.	4dd\	.
2B-\	2B-\	.	2d\	Pon-	4e\	.	2g/	-ti-	[2dd\	.
.	.	.	.	.	4d\	.	.	.	.	.
=8	=8	=8	=8	=8	=8	=8	=8	=8	=8	=8
1A	1A	-ti-	2a\	.	1e	-ti-	[1a	-fex	2dd\]	.
.	.	.	2e\	.	.	.	.	.	2cc#\	-ti-
=9	=9	=9	=9	=9	=9	=9	=9	=9	=9	=9
1D	[1D	-fex	2.f#i\	-ti-	[1d	-fex	1a]	.	1dd	-fex
.	.	.	4e\	.	.	.	.	.	.	.
=10	=10	=10	=10	=10	=10	=10	=10	=10	=10	=10
!!linebreak:original
2r	1D]	.	2d\	-fex	1d]	.	2r	.	1r	.
[2B-\	.	.	[2B-\	fe-	.	.	[2b-\	fe-	.	.
=11	=11	=11	=11	=11	=11	=11	=11	=11	=11	=11
2B-\]	1r	.	2B-\]	.	1r	.	2b-\]	.	2r	.
2c\	.	.	2c\	-lix	.	.	2a/	-lix	2cc\	fe-
=12	=12	=12	=12	=12	=12	=12	=12	=12	=12	=12
2e-\	1r	.	2e-\	di-	1r	.	2g/	.	2b-\	-lix
2c\	.	.	2c\	-es	.	.	[2a/	di-	[2cc\	di-
=13	=13	=13	=13	=13	=13	=13	=13	=13	=13	=13
1e-	1r	.	1e-	i-	1r	.	4a/]	.	4cc\]	.
.	.	.	.	.	.	.	4g/	.	4b-\	.
.	.	.	.	.	.	.	[2g/	-es	4a/	-es
.	.	.	.	.	.	.	.	.	4g/	.
=14	=14	=14	=14	=14	=14	=14	=14	=14	=14	=14
2d\	2r	.	1d	-sta	2r	.	2g/]	.	1a	i-
2D\	2D\	fe-	.	.	2A/	fe-	2f#/	i-	.	.
=15	=15	=15	=15	=15	=15	=15	=15	=15	=15	=15
[1G	[1G	.	2.d\	fe-	2.B-\	-lix	1g	-sta	2g/	-sta
.	.	.	.	.	.	.	.	.	[2b-\	fe-
.	.	.	4c\	-lix	4A/	.	.	.	.	.
=16	=16	=16	=16	=16	=16	=16	=16	=16	=16	=16
2G\]	2G\]	.	4d\	di-	2G/	di-	1r	.	2b-\]	.
.	.	.	4e\	.	.	.	.	.	.	.
2F#\	2F#\	-lix	2f#i\	-es	2A/	.	.	.	[2a/	-lix
=17	=17	=17	=17	=17	=17	=17	=17	=17	=17	=17
2G\	2G\	di-	2d\	i-	2B-\	-es	2r	.	4a/]	.
.	.	.	.	.	.	.	.	.	4g/	di-
2C/	2C/	-es	2c\	.	2c\	.	2g/	sis	[2g/	-es
=18	=18	=18	=18	=18	=18	=18	=18	=18	=18	=18
1D	1D	i-	1d	.	1A	i-	2.dd\	mi-	2g/]	.
.	.	.	.	.	.	.	.	.	2f#/	i-
.	.	.	.	.	.	.	4cc\	.	.	.
=19	=19	=19	=19	=19	=19	=19	=19	=19	=19	=19
2GG/	2GG/	-sta	1d	-sta	1G	-sta	4b-\	.	2g/	-sta
.	.	.	.	.	.	.	4a/	.	.	.
2G\	2G\	sis	.	.	.	.	[2b-\	.	2dd\	sis
=20	=20	=20	=20	=20	=20	=20	=20	=20	=20	=20
!!pagebreak:original
2G\	2G\	mi-	1r	.	1B-	sis	2b-\]	.	2dd\	mi-
2G\	2G\	-se-	.	.	.	.	4a/	-se-	2dd\	-se-
.	.	.	.	.	.	.	4g/	.	.	.
=21	=21	=21	=21	=21	=21	=21	=21	=21	=21	=21
1F	1F	-ro-	2r	.	1c	mi-	[1a	-ro-	[1ff	-ro-
.	.	.	2a\	sis	.	.	.	.	.	.
=22	=22	=22	=22	=22	=22	=22	=22	=22	=22	=22
1D	1D	-rum	2f\	mi-	1d	-se-	2a/]	.	1ff]	.
.	.	.	2f\	-se-	.	.	2a/	-rum	.	.
=23	=23	=23	=23	=23	=23	=23	=23	=23	=23	=23
2.G\	2.G\	o-	1g	-ro-	2d\	-ro-	2b-\	o-	2.dd\	.
.	.	.	.	.	[2B-\	-rum	2g/	-pi-	.	.
4A\	4A\	.	.	.	.	.	.	.	4cc\	.
=24	=24	=24	=24	=24	=24	=24	=24	=24	=24	=24
2B-\	2B-\	.	2d\	-rum	2B-\]	.	1f	-fex	2dd\	.
[2F\	[2F\	.	[2f\	o-	2A/	o-	.	.	[2cc\	.
=25	=25	=25	=25	=25	=25	=25	=25	=25	=25	=25
2F\]	2F\]	.	2f\]	.	1B-	-pi-	1r	.	4cc\]	.
.	.	.	.	.	.	.	.	.	4b-\	-rum
2G\	2G\	.	2e\	-pi-	.	.	.	.	[2b-\	o-
=26	=26	=26	=26	=26	=26	=26	=26	=26	=26	=26
1F	1F	-pi-	1f	-fex	1c	-fex	1r	.	2b-\]	.
.	.	.	.	.	.	.	.	.	2a/	-pi-
=27	=27	=27	=27	=27	=27	=27	=27	=27	=27	=27
2BB-/	1BB-	-fex	2r	.	2r	.	2r	.	2b-\	-fex
[2B-\	.	.	[2b-\	fe-	[2B-\	fe-	[2dd\	fe-	[2ff\	fe-
=28	=28	=28	=28	=28	=28	=28	=28	=28	=28	=28
2B-\]	1r	.	4b-\]	.	2B-\]	.	2dd\]	.	2ff\]	.
.	.	.	4a\	-lix	.	.	.	.	.	.
2c\	.	.	[2g\	di-	2c\	-lix	2cc\	-lix	2ee-\	-lix
=29	=29	=29	=29	=29	=29	=29	=29	=29	=29	=29
2d\	1r	.	4g\]	.	2d\	.	2b-\	di-	2dd\	di-
.	.	.	4d\	.	.	.	.	.	.	.
2e-\	.	.	[2g\	-es	2e-\	di-	4a/	-es	2cc\	-es
.	.	.	.	.	.	.	4g/	.	.	.
=30	=30	=30	=30	=30	=30	=30	=30	=30	=30	=30
1d	1r	.	2g\]	.	1d	-es	1a	i-	1dd	i-
.	.	.	2f#i\	i-	.	.	.	.	.	.
=31	=31	=31	=31	=31	=31	=31	=31	=31	=31	=31
2G\	2r	.	2g\	-sta	2G/	i-	2g/	-sta	1dd	-sta
[2BB-/	[2BB-/	fe-	[2f\	di-	[2d\	-fe-	[2b-\	fe-	.	.
=32	=32	=32	=32	=32	=32	=32	=32	=32	=32	=32
!!linebreak:original
2BB-/]	2BB-/]	.	2f\]	.	2d\]	.	2b-\]	.	1r	.
2C/	2C/	-lix	2e-\	-es	2c\	-lix	4a/	-lix	.	.
.	.	.	.	.	.	.	4g/	.	.	.
=33	=33	=33	=33	=33	=33	=33	=33	=33	=33	=33
2D\	2D\	di-	2d\	i-	2B-\	di-	4f#/	di-	2r	.
.	.	.	.	.	.	.	4d/	.	.	.
2E-\	2E-\	-es	2c\	.	4A/	-es	[2g/	-es	2g/	di-
.	.	.	.	.	4G/	.	.	.	.	.
=34	=34	=34	=34	=34	=34	=34	=34	=34	=34	=34
1D	1D	i-	[1d	-sta.	1A	i-	2g/]	.	2dd\	-es
.	.	.	.	.	.	.	2f#/	i-	2a/	i-
=35	=35	=35	=35	=35	=35	=35	=35	=35	=35	=35
[1GG	[1GG	-sta.	1d_	.	[1G	-sta.	[1g	-sta.	[1bn	-sta.
=36	=36	=36	=36	=36	=36	=36	=36	=36	=36	=36
1GG]	1GG]	.	1d]	.	1G]	.	1g]	.	1b]	.
==	==	==	==	==	==	==	==	==	==	==
*-	*-	*-	*-	*-	*-	*-	*-	*-	*-	*-
!!!GTL: Hymnbook E
!!!EFL: 8/117
!!!YEM: Creative Commons CC/BY/NC/SA 4.0
!!!ENC: Marcin Konik
!!!END: 
!!!EED: Marcin Konik
!!!EEV: 
!!!ONB: Translated from MusicXML and edited by Marcin Konik
!!!CharacterEncoding: utf-8
!!!RDF**kern: l=long note in original notation
!!!RDF**kern: i=editorial accidental
!!muse2ps: z14jc180F
